X:804
T:Reel 804
M:4/4
K:Dmaj
L:1/8
A^GEC D2DC|A,B,CD EFGE|A^GEC DFEC|A,B,CD EFGE|A^GEC D2DC|A,B,CD EFGE|A^GEC DFEC|A,B,CD EFGE|A^GEC A2dB|AdBA GEEB|AGEF D2FG|AFEG FDDz|AGAB c2dB|AFGA FDEG|CDEC DFBd|c<AGE F<DDz|
